assets/img/mobile/menue.svg

<svg width="41" height="41" viewBox="0 0 41 41" fill="none" xmlns="http://www.w3.org/2000/svg">
<rect width="41" height="41" rx="20.5" fill="white"/>
<path d="M27.4345 19.9746H14.5655C14.2532 19.9746 14 20.2097 14 20.4997C14 20.7898 14.2532 21.0249 14.5655 21.0249H27.4345C27.7468 21.0249 28 20.7898 28 20.4997C28 20.2097 27.7468 19.9746 27.4345 19.9746Z" fill="#354BAC"/>
<path d="M27.4345 15.9917H14.5655C14.2532 15.9917 14 16.2268 14 16.5168C14 16.8068 14.2532 17.042 14.5655 17.042H27.4345C27.7468 17.042 28 16.8068 28 16.5168C28 16.2268 27.7468 15.9917 27.4345 15.9917Z" fill="#354BAC"/>
<path d="M27.4345 23.958H14.5655C14.2532 23.958 14 24.1931 14 24.4831C14 24.7732 14.2532 25.0083 14.5655 25.0083H27.4345C27.7468 25.0083 28 24.7732 28 24.4831C28 24.1931 27.7468 23.958 27.4345 23.958Z" fill="#354BAC"/>
</svg>

<svg width="41" height="41" fill="none" xmlns="http://www.w3.org/2000/svg"><rect width="41" height="41" rx="20.5" fill="#fff"/><path d="M27.434 19.975H14.566c-.312 0-.565.235-.565.525 0 .29.253.525.566.525h12.868c.313 0 .566-.235.566-.525 0-.29-.253-.525-.566-.525zM27.434 15.992H14.566c-.312 0-.565.235-.565.525 0 .29.253.525.566.525h12.868c.313 0 .566-.235.566-.525 0-.29-.253-.525-.566-.525zM27.434 23.958H14.566c-.312 0-.565.235-.565.525 0 .29.253.525.566.525h12.868c.313 0 .566-.235.566-.525 0-.29-.253-.525-.566-.525z" fill="#354BAC"/></svg>
